docs/.gitbook/assets/icon-bank-note-16@light.svg

<svg width="32" height="32" viewBox="0 0 16 16" fill="none" xmlns="http://www.w3.org/2000/svg">
<rect x="0" y="0" width="16" height="16" fill="#fff"/>
<path fill-rule="evenodd" clip-rule="evenodd" d="M8.17834 3.44288C6.55941 2.93977 4.90462 2.94668 3.6752 3.06983C3.04964 3.1325 2.52242 3.2265 2.14946 3.30537C1.96273 3.34486 1.81396 3.38071 1.71008 3.4072C1.65812 3.42046 1.61734 3.43139 1.58858 3.43928L1.56577 3.44564C1.41195 3.48448 1.27705 3.57084 1.17758 3.68818C1.06092 3.82619 0.995703 4.00433 0.999951 4.18969V11.7654C0.998974 11.8081 1.00165 11.8512 1.00821 11.8944C1.01996 11.9731 1.04393 12.0478 1.07812 12.1165C1.13892 12.2393 1.23083 12.34 1.34106 12.4116C1.49945 12.5145 1.69566 12.5573 1.89171 12.5194C1.91757 12.5144 1.94296 12.5081 1.96781 12.5006L1.98578 12.4956C2.0061 12.49 2.03807 12.4814 2.08083 12.4705C2.16641 12.4487 2.29498 12.4176 2.45982 12.3828C2.78998 12.313 3.26276 12.2285 3.82471 12.1722C4.84129 12.0704 6.11222 12.0646 7.34891 12.3771C7.49814 12.4383 7.65433 12.4846 7.81723 12.5132C9.44219 13.0671 11.1011 13.0587 12.3324 12.9225C12.9612 12.8529 13.491 12.7485 13.8659 12.661C14.0536 12.6171 14.2032 12.5773 14.3078 12.5478C14.3602 12.5331 14.4013 12.5209 14.4304 12.5121L14.4632 12.502C14.5026 12.4903 14.5406 12.4755 14.577 12.4579C14.7004 12.3983 14.8015 12.3077 14.8739 12.199C14.9268 12.1199 14.965 12.0303 14.9847 11.9339C14.996 11.8791 15.0013 11.8227 15 11.7656V4.19049C15.0009 4.14802 14.9983 4.1051 14.9918 4.06213C14.9771 3.96278 14.9429 3.86978 14.8933 3.78714C14.8499 3.71457 14.7951 3.65111 14.7321 3.59838C14.6238 3.50736 14.4894 3.44642 14.3416 3.42841C14.2875 3.4217 14.2321 3.42089 14.1764 3.42642C14.1174 3.43216 14.0604 3.44475 14.0061 3.46339L13.995 3.4668C13.975 3.47286 13.9434 3.48224 13.9011 3.49418C13.8162 3.51808 13.6885 3.55217 13.5247 3.59044C13.1964 3.66712 12.7262 3.75986 12.1675 3.82169C11.1438 3.93495 9.86378 3.93979 8.62294 3.58433C8.48003 3.52062 8.33165 3.47238 8.17834 3.44288ZM6.09048 4.55048C5.27966 4.46969 4.49663 4.49505 3.82471 4.56236C3.28515 4.61641 2.82779 4.69641 2.49995 4.7645V10.846C2.82712 10.7859 3.22578 10.7247 3.6752 10.6797C4.24828 10.6223 4.91379 10.5901 5.62501 10.6231C5.23284 9.85263 4.99995 8.92447 4.99995 7.99998C4.99995 6.95984 5.33328 5.83396 5.81837 4.97915C5.902 4.83176 5.99279 4.68774 6.09048 4.55048ZM8.1437 11.0421C8.04733 11.0126 7.95084 10.9848 7.85434 10.9588C7.60659 10.835 7.32133 10.5711 7.05996 10.1228C6.71918 9.53841 6.49995 8.7658 6.49995 7.99998C6.49995 7.2452 6.75256 6.37216 7.12294 5.71947C7.30754 5.39418 7.49919 5.16326 7.66394 5.0306C7.74419 4.96598 7.80456 4.93556 7.84181 4.92251C7.84826 4.92025 7.85384 4.91856 7.85859 4.91731C7.9306 4.94143 8.00268 4.96445 8.07478 4.98641C8.29419 5.1069 8.59485 5.37908 8.88657 5.86402C9.25292 6.47301 9.49995 7.25491 9.49995 7.99998C9.49995 8.77449 9.27635 9.63805 8.93059 10.2671C8.75813 10.5808 8.57643 10.7975 8.41545 10.9212C8.29279 11.0154 8.20524 11.0402 8.1437 11.0421ZM9.9565 11.4489C10.747 11.5323 11.5101 11.5043 12.1675 11.4316C12.7123 11.3713 13.173 11.2816 13.5 11.206V5.13069C13.1737 5.19655 12.7779 5.2633 12.3324 5.31259C11.7457 5.37751 11.0618 5.4134 10.3308 5.37324C10.7329 6.13894 11 7.06803 11 7.99998C11 9.0204 10.7157 10.1334 10.2451 10.9896C10.1582 11.1477 10.0621 11.3023 9.9565 11.4489Z" fill="#000"/>
</svg>

<svg xmlns="http://www.w3.org/2000/svg" width="32" height="32" fill="none" viewBox="0 0 16 16"><path fill="#fff" d="M0 0h16v16H0z"/><path fill="#000" fill-rule="evenodd" d="M8.178 3.443C6.56 2.94 4.905 2.947 3.675 3.07a14 14 0 0 0-1.965.337l-.121.032-.023.007A.75.75 0 0 0 1 4.19v7.575a.75.75 0 0 0 .341.647.75.75 0 0 0 .627.089l.018-.005.095-.026a13 13 0 0 1 1.744-.298c1.016-.102 2.287-.107 3.524.205q.224.093.468.136c1.625.554 3.284.546 4.515.41.63-.07 1.159-.175 1.534-.262a10 10 0 0 0 .564-.149l.033-.01a.76.76 0 0 0 .522-.568 1 1 0 0 0 .015-.168V4.19a.75.75 0 0 0-.994-.727l-.011.004-.094.027a12 12 0 0 1-1.734.328c-1.023.113-2.303.118-3.544-.238a2 2 0 0 0-.445-.141M6.09 4.55a11.6 11.6 0 0 0-2.265.012c-.54.054-.997.134-1.325.202v6.082c.327-.06.726-.121 1.175-.166.573-.058 1.239-.09 1.95-.057A5.9 5.9 0 0 1 5 8c0-1.04.333-2.166.818-3.02a5 5 0 0 1 .272-.43m2.054 6.492a9 9 0 0 0-.29-.083c-.247-.124-.533-.388-.794-.836A4.34 4.34 0 0 1 6.5 8c0-.755.253-1.628.623-2.28.185-.326.376-.557.54-.69a.6.6 0 0 1 .196-.113l.216.07c.22.12.52.392.812.877.366.609.613 1.39.613 2.136 0 .774-.224 1.638-.57 2.267-.172.314-.354.53-.515.654-.122.094-.21.12-.271.121m1.813.407c.79.083 1.553.055 2.21-.017a12 12 0 0 0 1.333-.226V5.131a13 13 0 0 1-1.168.182c-.586.065-1.27.1-2.001.06C10.733 6.14 11 7.068 11 8c0 1.02-.284 2.133-.755 2.99a5 5 0 0 1-.288.459" clip-rule="evenodd"/></svg>
